X:82
T: Jungfer Doertchen
N: Q0057U
O: Mitteleuropa, Deutschland (BRD) , Rheinland
R: Ballade, Todesahnung, Tod, Selbstmord
M: 6/8
L: 1/16
K: G
D2G4B2 | d4d2A4BA | G4
A2B4e2 | d2d2d2c4d2 | B4
G2G2B2e2 | e2d2B2B4d2 | d4
B2A2A2A2 | e2d2B2d2d2dc | B4
G2G2B2e2 | e2d2B2B4d2 | d4
B2A2A2A2 | e2d2B2d2d2dc | B4

